sands/images/icon-serv3.svg

<svg width="55" height="56" viewBox="0 0 55 56" fill="none" xmlns="http://www.w3.org/2000/svg">
<path d="M36.7125 17.4126C36.1283 17.4126 35.6541 17.8922 35.6541 18.4854C35.6541 19.0781 36.1283 19.5586 36.7125 19.5586C37.298 19.5586 37.771 19.0781 37.771 18.4854C37.771 17.8922 37.298 17.4126 36.7125 17.4126Z" fill="#FE9901"/>
<path d="M17.4804 36.9114C16.8949 36.9114 16.4219 37.3922 16.4219 37.9846C16.4219 38.5782 16.8949 39.0577 17.4804 39.0577C18.0646 39.0577 18.5388 38.5782 18.5388 37.9846C18.5388 37.3922 18.0646 36.9114 17.4804 36.9114Z" fill="#FE9901"/>
<path opacity="0.7" d="M52.8775 7.36475C52.5203 7.28048 52.1448 7.3899 51.8868 7.654L47.4987 12.1383H45.3949L43.0791 9.70563V7.54291L47.4044 3.09212C47.6603 2.82886 47.7645 2.45031 47.6798 2.0902C47.5954 1.73052 47.3341 1.44042 46.9885 1.3222C45.9019 0.95078 44.7648 0.762553 43.6083 0.762553C40.1608 0.762553 37.0288 2.39246 35.0152 5.2343C33.1306 7.89463 32.5496 11.1549 33.382 14.2751L25.5851 22.1802L12.5956 8.97998V6.38924C12.5956 6.01236 12.4004 5.66274 12.0816 5.46906L4.59738 0.915566C4.1806 0.661942 3.64764 0.728597 3.30446 1.07696L0.31093 4.11165C-0.0322508 4.46002 -0.0979925 5.00038 0.151744 5.42295L4.64204 13.0111C4.83306 13.3343 5.17748 13.5318 5.54919 13.5322L8.10361 13.5331L21.0944 26.7332L13.3274 34.6082C10.2499 33.7647 7.03272 34.3545 4.4076 36.2666C1.60633 38.3069 0 41.4816 0 44.977C0 46.1491 0.185648 47.3024 0.551983 48.4037C0.668995 48.7562 0.958011 49.0224 1.31525 49.1063C1.6729 49.1905 2.04792 49.0811 2.30634 48.817L6.69409 44.3331H8.80941L11.2195 46.7767V48.9214L6.79704 53.3701C6.53656 53.6321 6.42864 54.0123 6.51175 54.3749C6.59444 54.7371 6.857 55.0302 7.20473 55.1488C8.29091 55.5202 9.42837 55.7084 10.5844 55.7084C14.032 55.7084 17.1628 54.0794 19.1755 51.2392C21.0614 48.5776 21.6431 45.3161 20.8112 42.1959L27.0492 35.8713L28.4782 37.445L27.8224 38.1094C27.409 38.5287 27.409 39.2082 27.8224 39.6274C28.2359 40.0462 28.9057 40.0462 29.3196 39.6274L29.9134 39.0254L43.3206 53.791C43.3305 53.8019 43.3408 53.8123 43.3512 53.8228C45.832 56.3381 49.8513 56.3389 52.3334 53.8224C54.8084 51.3117 54.8084 47.2265 52.3334 44.7158C52.3226 44.7049 52.3115 44.6945 52.3003 44.684L37.7143 31.1165L38.3014 30.5213C38.7149 30.1025 38.7149 29.4229 38.3014 29.0037C37.888 28.5845 37.2181 28.5845 36.8043 29.0037L36.153 29.6644L34.598 28.2173L40.8662 21.862C41.7572 22.1035 42.6768 22.2259 43.6083 22.2259C49.4449 22.2259 54.1928 17.4116 54.1928 11.4944C54.1928 10.3219 54.0071 9.16904 53.6408 8.06735C53.5238 7.71479 53.2348 7.44859 52.8775 7.36475ZM9.29193 11.7019C9.09346 11.5003 8.82429 11.3976 8.54313 11.3976L6.14914 11.3967L2.39234 5.03727L4.21699 3.18728L10.4786 6.9971V9.42434C10.4786 9.70857 10.5898 9.98106 10.7879 10.1823L24.0884 23.6981L22.5912 25.2157L9.29193 11.7019ZM36.2159 32.6358L50.8515 46.2489C52.4864 47.9241 52.4814 50.6364 50.8362 52.3053C49.1873 53.9771 46.5179 53.9821 44.8624 52.3199L31.4114 37.5062L36.2159 32.6358ZM34.6546 31.1832L29.9762 35.9258L28.5473 34.352L33.0996 29.7361L34.6546 31.1832ZM43.6083 20.0795C42.6826 20.0795 41.7721 19.929 40.903 19.6322C40.5222 19.5027 40.1013 19.6024 39.8168 19.8904C34.5103 25.2706 23.0762 36.8631 18.8658 41.1324C18.5814 41.4208 18.4826 41.8476 18.6111 42.2341C19.491 44.8831 19.0701 47.7086 17.4559 49.987C15.8463 52.2587 13.3415 53.5621 10.5844 53.5621C10.2747 53.5621 9.96671 53.5449 9.66157 53.5118L13.0235 50.1296C13.2236 49.9283 13.3365 49.6542 13.3365 49.3678V46.3319C13.3365 46.0473 13.2249 45.7743 13.0264 45.5731L9.99607 42.5007C9.7976 42.2995 9.52843 42.1863 9.24768 42.1863H6.25333C5.97093 42.1863 5.70052 42.3007 5.50164 42.5036L2.16617 45.9123C2.1331 45.6029 2.11656 45.2906 2.11656 44.9766C2.11656 42.1808 3.40162 39.6417 5.64263 38.0097C7.88943 36.3731 10.6766 35.9459 13.2898 36.8384C13.6706 36.9688 14.0915 36.8686 14.376 36.5802C14.4343 36.5215 35.312 15.3533 35.3269 15.3382C35.6114 15.0498 35.7098 14.6234 35.5816 14.2369C34.7014 11.5879 35.1214 8.76324 36.7344 6.48649C38.3453 4.21268 40.8505 2.90893 43.6079 2.90893C43.9271 2.90893 44.2443 2.92695 44.5585 2.96217L41.2664 6.34983C41.0713 6.55063 40.9621 6.82103 40.9621 7.10274V10.1387C40.9621 10.417 41.0684 10.6841 41.259 10.884L44.1835 13.9565C44.3828 14.1661 44.6577 14.2843 44.9451 14.2843H47.9394C48.2214 14.2843 48.4918 14.1703 48.6907 13.9669L52.0262 10.5587C52.0593 10.8681 52.0758 11.1804 52.0758 11.4944C52.0758 16.2282 48.2772 20.0795 43.6083 20.0795Z" fill="#393939"/>
<path d="M32.9705 20.7617L19.725 34.1912C19.3119 34.61 19.3119 35.2895 19.725 35.7087C20.1384 36.1279 20.8087 36.1279 21.2221 35.7087L34.4677 22.2792C34.8811 21.8604 34.8811 21.1809 34.4677 20.7617C34.0542 20.3425 33.384 20.3425 32.9705 20.7617Z" fill="#FE9901"/>
<path d="M46.3465 49.2703C46.76 49.6883 47.4302 49.6883 47.8437 49.2678C48.2563 48.8482 48.2551 48.1686 47.8412 47.7502L38.3003 38.1079C37.8865 37.6895 37.2158 37.6908 36.8036 38.1104C36.3905 38.5305 36.3918 39.2096 36.8056 39.628L46.3465 49.2703Z" fill="#FE9901"/>
</svg>

<svg width="55" height="56" fill="none" xmlns="http://www.w3.org/2000/svg"><path d="M36.712 17.413c-.584 0-1.058.48-1.058 1.072 0 .593.474 1.074 1.058 1.074.586 0 1.059-.48 1.059-1.074 0-.593-.473-1.072-1.059-1.072zM17.48 36.911c-.585 0-1.058.481-1.058 1.074 0 .593.473 1.073 1.058 1.073.585 0 1.059-.48 1.059-1.073s-.474-1.074-1.059-1.074z" fill="#FE9901"/><path opacity=".7" d="M52.877 7.365a1.048 1.048 0 00-.99.289l-4.388 4.484h-2.104l-2.316-2.432V7.543l4.325-4.45c.256-.264.36-.643.276-1.003a1.067 1.067 0 00-.691-.768 10.427 10.427 0 00-3.38-.56c-3.448 0-6.58 1.63-8.594 4.472a10.73 10.73 0 00-1.633 9.041l-7.797 7.905-12.99-13.2V6.39c0-.378-.195-.727-.513-.92L4.597.915a1.047 1.047 0 00-1.293.161L.311 4.112a1.085 1.085 0 00-.16 1.311l4.491 7.588c.191.323.535.52.907.521l2.555.001 12.99 13.2-7.767 7.875c-3.077-.843-6.294-.253-8.92 1.659C1.608 38.307 0 41.482 0 44.977c0 1.172.186 2.325.552 3.427.117.352.406.618.763.702.358.084.733-.025.991-.289l4.388-4.484H8.81l2.41 2.444v2.144l-4.422 4.45a1.082 1.082 0 00.408 1.778c1.086.371 2.223.56 3.38.56 3.447 0 6.578-1.63 8.59-4.47 1.886-2.661 2.468-5.923 1.636-9.043l6.238-6.325 1.43 1.574-.657.664a1.084 1.084 0 000 1.518 1.05 1.05 0 001.498 0l.593-.602 13.408 14.766.03.032a6.288 6.288 0 008.982 0c2.475-2.511 2.475-6.596 0-9.107a.334.334 0 00-.033-.032L37.714 31.117l.587-.596a1.083 1.083 0 000-1.517 1.048 1.048 0 00-1.497 0l-.651.66-1.555-1.447 6.268-6.355c.891.242 1.81.364 2.742.364 5.837 0 10.585-4.814 10.585-10.732a10.84 10.84 0 00-.552-3.427 1.063 1.063 0 00-.764-.702zM9.292 11.702a1.04 1.04 0 00-.749-.304l-2.394-.001-3.757-6.36 1.825-1.85 6.262 3.81v2.427c0 .285.11.557.309.758l13.3 13.516-1.497 1.518-13.3-13.514zm26.924 20.934l14.636 13.613a4.343 4.343 0 01-.016 6.056 4.193 4.193 0 01-5.974.015l-13.45-14.814 4.804-4.87zm-1.561-1.453l-4.679 4.743-1.429-1.574 4.553-4.616 1.555 1.447zm8.953-11.104a8.35 8.35 0 01-2.705-.447 1.05 1.05 0 00-1.086.258L18.866 41.132a1.084 1.084 0 00-.255 1.102 8.595 8.595 0 01-1.155 7.753c-1.61 2.272-4.114 3.575-6.872 3.575a8.56 8.56 0 01-.922-.05l3.361-3.382c.2-.202.313-.476.313-.762v-3.036a1.08 1.08 0 00-.31-.759l-3.03-3.072a1.051 1.051 0 00-.748-.315H6.253c-.282 0-.552.115-.751.318l-3.336 3.408a8.804 8.804 0 01-.05-.935c0-2.796 1.286-5.335 3.527-6.967 2.246-1.637 5.034-2.064 7.647-1.172.38.13.802.03 1.086-.258l20.95-21.242c.285-.288.384-.715.256-1.101a8.591 8.591 0 011.152-7.75c1.611-2.274 4.116-3.578 6.874-3.578.32 0 .636.018.95.053L41.267 6.35a1.08 1.08 0 00-.304.753v3.036c0 .278.106.545.297.745l2.925 3.072c.199.21.474.328.761.328h2.994c.282 0 .553-.114.752-.317l3.335-3.408c.033.31.05.621.05.935 0 4.734-3.799 8.585-8.468 8.585z" fill="#393939"/><path d="M32.97 20.762l-13.245 13.43a1.084 1.084 0 000 1.517 1.049 1.049 0 001.497 0l13.246-13.43a1.083 1.083 0 000-1.517 1.048 1.048 0 00-1.498 0zM46.346 49.27a1.048 1.048 0 001.498-.002c.412-.42.411-1.1-.003-1.518l-9.54-9.642a1.048 1.048 0 00-1.497.002c-.413.42-.412 1.1.002 1.518l9.54 9.642z" fill="#FE9901"/></svg>
